X:224
T:Finbarr Dwyer's
R:reel
D:An Tradisiun Beo
Z:Transcribed by Dave Marshall
M:C|
K:Amix
|: A3e cAec | AEAe dBGA | Be (3eee Bdde | dBGB eBdB |
A3e cAec | AEAe dBGA | Be (3eee Bdef | gaba gedB :|
|: cAec a3g | gedg eaa2 | Aece afge | deBd eBdB |
cAec a3g | gedg eaag | f2df gfge | BddB eBdB :|
